frontend/public/images/logo.svg

<svg width="842" height="185" viewBox="0 0 842 185" fill="none" xmlns="http://www.w3.org/2000/svg">
<g clip-path="url(#clip0_1_364)">
<circle cx="400.826" cy="94.8264" r="30" transform="rotate(25.0652 400.826 94.8264)" fill="#22272e"/>
<circle cx="400.826" cy="94.8264" r="41.5" transform="rotate(25.0652 400.826 94.8264)" stroke="#22272e" stroke-width="7"/>
<path d="M419.891 54.0642L426.595 131.718L355.993 98.6974L419.891 54.0642Z" fill="#22272e"/>
<circle cx="401.237" cy="95.2369" r="25" transform="rotate(25.0652 401.237 95.2369)" fill="#C6C6C6"/>
<path d="M43.39 164H34.43V68H43.39V79.968C45.6087 75.9147 48.638 72.6293 52.478 70.112C56.318 67.5947 60.8833 66.336 66.174 66.336C70.8247 66.336 75.1767 67.2107 79.23 68.96C83.326 70.7093 86.91 73.1413 89.982 76.256C93.054 79.328 95.4647 82.8907 97.214 86.944C98.9633 90.9973 99.838 95.3493 99.838 100C99.838 104.651 98.9633 109.024 97.214 113.12C95.4647 117.216 93.054 120.821 89.982 123.936C86.91 127.008 83.326 129.419 79.23 131.168C75.1767 132.917 70.8247 133.792 66.174 133.792C60.8833 133.792 56.318 132.533 52.478 130.016C48.638 127.499 45.6087 124.213 43.39 120.16V164ZM66.11 75.04C61.63 75.04 57.726 76.1707 54.398 78.432C51.1127 80.6507 48.574 83.6373 46.782 87.392C44.99 91.1467 44.094 95.3493 44.094 100C44.094 104.565 44.9687 108.747 46.718 112.544C48.51 116.341 51.0487 119.371 54.334 121.632C57.662 123.893 61.5873 125.024 66.11 125.024C70.5473 125.024 74.622 123.915 78.334 121.696C82.0887 119.477 85.0967 116.491 87.358 112.736C89.6193 108.939 90.75 104.693 90.75 100C90.75 95.4347 89.6407 91.2747 87.422 87.52C85.2033 83.7227 82.238 80.6933 78.526 78.432C74.814 76.1707 70.6753 75.04 66.11 75.04ZM165.988 92.384V132H157.028V94.176C157.028 90.6773 156.175 87.4987 154.468 84.64C152.761 81.7813 150.479 79.4987 147.62 77.792C144.761 76.0853 141.583 75.232 138.084 75.232C134.628 75.232 131.449 76.0853 128.548 77.792C125.689 79.4987 123.407 81.7813 121.7 84.64C119.993 87.4987 119.14 90.6773 119.14 94.176V132H110.18V36H119.14V76.832C121.401 73.5893 124.345 71.008 127.972 69.088C131.599 67.168 135.545 66.208 139.812 66.208C144.633 66.208 149.028 67.3813 152.996 69.728C156.964 72.0747 160.121 75.232 162.468 79.2C164.815 83.168 165.988 87.5627 165.988 92.384ZM230.163 68H239.123V132H230.163L229.843 120.096C227.752 124.149 224.83 127.435 221.075 129.952C217.32 132.427 212.84 133.664 207.635 133.664C202.942 133.664 198.547 132.789 194.451 131.04C190.355 129.248 186.75 126.795 183.635 123.68C180.52 120.565 178.088 116.96 176.339 112.864C174.59 108.768 173.715 104.373 173.715 99.68C173.715 95.072 174.568 90.7413 176.275 86.688C178.024 82.6347 180.414 79.072 183.443 76C186.515 72.928 190.056 70.5387 194.067 68.832C198.12 67.0827 202.451 66.208 207.059 66.208C212.392 66.208 217.043 67.488 221.011 70.048C224.979 72.5653 228.136 75.872 230.483 79.968L230.163 68ZM207.443 124.96C212.008 124.96 215.934 123.851 219.219 121.632C222.504 119.371 225.022 116.341 226.771 112.544C228.563 108.747 229.459 104.565 229.459 100C229.459 95.3067 228.563 91.0827 226.771 87.328C224.979 83.5307 222.44 80.5227 219.155 78.304C215.87 76.0853 211.966 74.976 207.443 74.976C202.92 74.976 198.782 76.1067 195.027 78.368C191.315 80.5867 188.35 83.5947 186.131 87.392C183.955 91.1893 182.867 95.392 182.867 100C182.867 104.651 183.998 108.875 186.259 112.672C188.52 116.427 191.507 119.413 195.219 121.632C198.974 123.851 203.048 124.96 207.443 124.96ZM307.738 92.384V132H298.778V94.176C298.778 90.6773 297.925 87.4987 296.218 84.64C294.511 81.7813 292.229 79.4987 289.37 77.792C286.511 76.0853 283.333 75.232 279.834 75.232C276.378 75.232 273.199 76.0853 270.298 77.792C267.439 79.4987 265.157 81.7813 263.45 84.64C261.743 87.4987 260.89 90.6773 260.89 94.176V132H251.93V68H260.89V76.832C263.151 73.5893 266.095 71.008 269.722 69.088C273.349 67.168 277.295 66.208 281.562 66.208C286.383 66.208 290.778 67.3813 294.746 69.728C298.714 72.0747 301.871 75.232 304.218 79.2C306.565 83.168 307.738 87.5627 307.738 92.384ZM353.259 76.96H337.963L337.899 132H328.939L329.003 76.96H317.419V68H329.003L328.939 47.904H337.899L337.963 68H353.259V76.96ZM456.93 132V68H465.89V76.832C468.194 73.5893 471.138 71.008 474.722 69.088C478.306 67.168 482.231 66.208 486.498 66.208C491.319 66.208 495.735 67.4027 499.746 69.792C503.757 72.1387 506.893 75.2747 509.154 79.2C511.415 75.2747 514.53 72.1387 518.498 69.792C522.466 67.4027 526.861 66.208 531.682 66.208C536.503 66.208 540.898 67.3813 544.866 69.728C548.834 72.0747 551.991 75.232 554.338 79.2C556.685 83.168 557.858 87.5627 557.858 92.384V132H548.898V94.368C548.898 90.9547 548.066 87.7973 546.402 84.896C544.738 81.9947 542.498 79.6693 539.682 77.92C536.909 76.128 533.815 75.232 530.402 75.232C526.989 75.232 523.874 76.064 521.058 77.728C518.285 79.3493 516.066 81.6107 514.402 84.512C512.738 87.3707 511.906 90.656 511.906 94.368V132H502.946V94.368C502.946 90.656 502.114 87.3707 500.45 84.512C498.786 81.6107 496.546 79.3493 493.73 77.728C490.914 76.064 487.799 75.232 484.386 75.232C481.015 75.232 477.922 76.128 475.106 77.92C472.29 79.6693 470.05 81.9947 468.386 84.896C466.722 87.7973 465.89 90.9547 465.89 94.368V132H456.93ZM622.038 68H630.998V132H622.038L621.718 120.096C619.627 124.149 616.705 127.435 612.95 129.952C609.195 132.427 604.715 133.664 599.51 133.664C594.817 133.664 590.422 132.789 586.326 131.04C582.23 129.248 578.625 126.795 575.51 123.68C572.395 120.565 569.963 116.96 568.214 112.864C566.465 108.768 565.59 104.373 565.59 99.68C565.59 95.072 566.443 90.7413 568.15 86.688C569.899 82.6347 572.289 79.072 575.318 76C578.39 72.928 581.931 70.5387 585.942 68.832C589.995 67.0827 594.326 66.208 598.934 66.208C604.267 66.208 608.918 67.488 612.886 70.048C616.854 72.5653 620.011 75.872 622.358 79.968L622.038 68ZM599.318 124.96C603.883 124.96 607.809 123.851 611.094 121.632C614.379 119.371 616.897 116.341 618.646 112.544C620.438 108.747 621.334 104.565 621.334 100C621.334 95.3067 620.438 91.0827 618.646 87.328C616.854 83.5307 614.315 80.5227 611.03 78.304C607.745 76.0853 603.841 74.976 599.318 74.976C594.795 74.976 590.657 76.1067 586.902 78.368C583.19 80.5867 580.225 83.5947 578.006 87.392C575.83 91.1893 574.742 95.392 574.742 100C574.742 104.651 575.873 108.875 578.134 112.672C580.395 116.427 583.382 119.413 587.094 121.632C590.849 123.851 594.923 124.96 599.318 124.96ZM641.245 107.488V68H650.205V105.696C650.205 109.195 651.058 112.373 652.765 115.232C654.472 118.091 656.754 120.373 659.613 122.08C662.514 123.787 665.693 124.64 669.149 124.64C672.648 124.64 675.805 123.787 678.621 122.08C681.48 120.373 683.762 118.091 685.469 115.232C687.176 112.373 688.029 109.195 688.029 105.696V68H696.989L697.053 132H688.093L688.029 123.04C685.768 126.283 682.824 128.864 679.197 130.784C675.613 132.704 671.688 133.664 667.421 133.664C662.6 133.664 658.205 132.491 654.237 130.144C650.269 127.797 647.112 124.64 644.765 120.672C642.418 116.704 641.245 112.309 641.245 107.488ZM742.509 76.96H727.213L727.149 132H718.189L718.253 76.96H706.669V68H718.253L718.189 47.904H727.149L727.213 68H742.509V76.96ZM809.738 92.384V132H800.778V94.176C800.778 90.6773 799.925 87.4987 798.218 84.64C796.511 81.7813 794.229 79.4987 791.37 77.792C788.511 76.0853 785.333 75.232 781.834 75.232C778.378 75.232 775.199 76.0853 772.298 77.792C769.439 79.4987 767.157 81.7813 765.45 84.64C763.743 87.4987 762.89 90.6773 762.89 94.176V132H753.93V36H762.89V76.832C765.151 73.5893 768.095 71.008 771.722 69.088C775.349 67.168 779.295 66.208 783.562 66.208C788.383 66.208 792.778 67.3813 796.746 69.728C800.714 72.0747 803.871 75.232 806.218 79.2C808.565 83.168 809.738 87.5627 809.738 92.384Z" fill="#22272e"/>
</g>
<defs>
<clipPath id="clip0_1_364">
<rect width="842" height="185" fill="white"/>
</clipPath>
</defs>
</svg>

<svg xmlns="http://www.w3.org/2000/svg" width="842" height="185" fill="none"><g clip-path="url(#a)"><circle cx="400.826" cy="94.826" r="30" fill="#22272e" transform="rotate(25.065 400.826 94.826)"/><circle cx="400.826" cy="94.826" r="41.5" stroke="#22272e" stroke-width="7" transform="rotate(25.065 400.826 94.826)"/><path fill="#22272e" d="m419.891 54.064 6.704 77.654-70.602-33.02z"/><circle cx="401.237" cy="95.237" r="25" fill="#C6C6C6" transform="rotate(25.065 401.237 95.237)"/><path fill="#22272e" d="M43.39 164h-8.96V68h8.96v11.968q3.328-6.08 9.088-9.856t13.696-3.776q6.976 0 13.056 2.624 6.144 2.624 10.752 7.296 4.608 4.608 7.232 10.688T99.838 100t-2.624 13.12-7.232 10.816q-4.608 4.608-10.752 7.232-6.08 2.624-13.056 2.624-7.936 0-13.696-3.776t-9.088-9.856zm22.72-88.96q-6.72 0-11.712 3.392-4.928 3.328-7.616 8.96T44.094 100q0 6.848 2.624 12.544 2.688 5.696 7.616 9.088 4.992 3.392 11.776 3.392 6.656 0 12.224-3.328 5.632-3.328 9.024-8.96Q90.75 107.04 90.75 100q0-6.847-3.328-12.48-3.328-5.696-8.896-9.088-5.567-3.392-12.416-3.392m99.878 17.344V132h-8.96V94.176q0-5.248-2.56-9.536a19.5 19.5 0 0 0-6.848-6.848q-4.288-2.56-9.536-2.56-5.184 0-9.536 2.56a19.5 19.5 0 0 0-6.848 6.848q-2.56 4.288-2.56 9.536V132h-8.96V36h8.96v40.832q3.391-4.864 8.832-7.744 5.44-2.88 11.84-2.88 7.232 0 13.184 3.52t9.472 9.472 3.52 13.184M230.163 68h8.96v64h-8.96l-.32-11.904q-3.136 6.08-8.768 9.856-5.632 3.712-13.44 3.712-7.04 0-13.184-2.624-6.144-2.688-10.816-7.36a34.1 34.1 0 0 1-7.296-10.816q-2.624-6.144-2.624-13.184 0-6.912 2.56-12.992 2.624-6.08 7.168-10.688a33.4 33.4 0 0 1 10.624-7.168q6.08-2.624 12.992-2.624 8 0 13.952 3.84 5.952 3.776 9.472 9.92zm-22.72 56.96q6.848 0 11.776-3.328 4.928-3.392 7.552-9.088 2.688-5.696 2.688-12.544 0-7.04-2.688-12.672-2.688-5.696-7.616-9.024t-11.712-3.328-12.416 3.392q-5.568 3.328-8.896 9.024-3.264 5.696-3.264 12.608 0 6.976 3.392 12.672 3.392 5.632 8.96 8.96 5.632 3.328 12.224 3.328m100.295-32.576V132h-8.96V94.176q0-5.248-2.56-9.536a19.5 19.5 0 0 0-6.848-6.848q-4.288-2.56-9.536-2.56-5.184 0-9.536 2.56a19.5 19.5 0 0 0-6.848 6.848q-2.56 4.288-2.56 9.536V132h-8.96V68h8.96v8.832q3.391-4.864 8.832-7.744 5.44-2.88 11.84-2.88 7.232 0 13.184 3.52t9.472 9.472 3.52 13.184m45.521-15.424h-15.296l-.064 55.04h-8.96l.064-55.04h-11.584V68h11.584l-.064-20.096h8.96L337.963 68h15.296zM456.93 132V68h8.96v8.832q3.456-4.864 8.832-7.744t11.776-2.88q7.232 0 13.248 3.584 6.016 3.52 9.408 9.408 3.392-5.888 9.344-9.408 5.952-3.584 13.184-3.584t13.184 3.52 9.472 9.472 3.52 13.184V132h-8.96V94.368q0-5.12-2.496-9.472t-6.72-6.976q-4.16-2.688-9.28-2.688t-9.344 2.496q-4.16 2.432-6.656 6.784-2.496 4.288-2.496 9.856V132h-8.96V94.368q0-5.568-2.496-9.856-2.496-4.352-6.72-6.784-4.224-2.496-9.344-2.496-5.056 0-9.28 2.688-4.224 2.625-6.72 6.976-2.496 4.352-2.496 9.472V132zm165.108-64h8.96v64h-8.96l-.32-11.904q-3.136 6.08-8.768 9.856-5.633 3.712-13.44 3.712-7.04 0-13.184-2.624-6.144-2.688-10.816-7.36a34.1 34.1 0 0 1-7.296-10.816q-2.624-6.144-2.624-13.184 0-6.912 2.56-12.992 2.624-6.08 7.168-10.688a33.4 33.4 0 0 1 10.624-7.168q6.08-2.624 12.992-2.624 8 0 13.952 3.84 5.952 3.776 9.472 9.92zm-22.72 56.96q6.848 0 11.776-3.328 4.928-3.392 7.552-9.088 2.688-5.696 2.688-12.544 0-7.04-2.688-12.672-2.688-5.696-7.616-9.024t-11.712-3.328-12.416 3.392q-5.568 3.328-8.896 9.024-3.264 5.696-3.264 12.608 0 6.976 3.392 12.672 3.392 5.632 8.96 8.96 5.632 3.328 12.224 3.328m41.927-17.472V68h8.96v37.696q0 5.248 2.56 9.536a19.5 19.5 0 0 0 6.848 6.848q4.352 2.56 9.536 2.56 5.248 0 9.472-2.56a19.5 19.5 0 0 0 6.848-6.848q2.56-4.288 2.56-9.536V68h8.96l.064 64h-8.96l-.064-8.96q-3.392 4.864-8.832 7.744-5.376 2.88-11.776 2.88-7.232 0-13.184-3.52t-9.472-9.472-3.52-13.184M742.509 76.96h-15.296l-.064 55.04h-8.96l.064-55.04h-11.584V68h11.584l-.064-20.096h8.96L727.213 68h15.296zm67.229 15.424V132h-8.96V94.176q0-5.248-2.56-9.536a19.5 19.5 0 0 0-6.848-6.848q-4.288-2.56-9.536-2.56-5.184 0-9.536 2.56a19.5 19.5 0 0 0-6.848 6.848q-2.56 4.288-2.56 9.536V132h-8.96V36h8.96v40.832q3.392-4.864 8.832-7.744t11.84-2.88q7.232 0 13.184 3.52t9.472 9.472 3.52 13.184"/></g><defs><clipPath id="a"><path fill="#fff" d="M0 0h842v185H0z"/></clipPath></defs></svg>
